dist/img/support/line.svg

<svg width="258" height="134" viewBox="0 0 258 134" fill="none" xmlns="http://www.w3.org/2000/svg">
<path d="M4.67887 132.198C4.92694 132.882 5.6828 133.236 6.36714 132.988L17.5191 128.945C18.2034 128.697 18.5571 127.941 18.309 127.257C18.0609 126.573 17.3051 126.219 16.6207 126.467L6.7079 130.061L3.11452 120.148C2.86644 119.463 2.11058 119.11 1.42624 119.358C0.741902 119.606 0.388239 120.362 0.63631 121.046L4.67887 132.198ZM257.886 6.55855C224.217 0.616964 177.831 -4.37118 131.392 10.2238C84.8878 24.8395 38.4798 59.046 4.72418 131.19L7.11176 132.307C40.5743 60.7897 86.4265 27.1191 132.182 12.7386C178.004 -1.66262 223.878 3.23401 257.428 9.15445L257.886 6.55855Z" fill="#5D7985"/>
</svg>

<svg width="258" height="134" fill="none" xmlns="http://www.w3.org/2000/svg"><path d="M4.679 132.198a1.318 1.318 0 001.688.79l11.152-4.043a1.318 1.318 0 10-.898-2.478l-9.913 3.594-3.593-9.913a1.318 1.318 0 10-2.479.898l4.043 11.152zM257.886 6.558c-33.669-5.941-80.055-10.93-126.494 3.666C84.888 24.84 38.48 59.046 4.724 131.19l2.388 1.117C40.574 60.79 86.426 27.119 132.182 12.739c45.822-14.402 91.696-9.505 125.246-3.585l.458-2.595z" fill="#5D7985"/></svg>
